X:18
T:Conquering Hero,The.2voices. AJH.018
M:4/4
L:1/8
Q:1/4=120
S:A.J.Hughes MS
N:Arrangement for3 voices apparently intended but only 2 completed in MS.
O:England
A:North Shropshire
Z:Neil Brookes 2006
K:G
[V:1] |: d4B3c | d4G4 | ABcd c2B2 | (B4A4) | Bcded2d2 | g4d4 | cBAGB2A2 | G8 😐
[V:2] |: B4G3A | B4D4 | FGAB A2G2 | (G4F4) | GABcB2B2 | e4B4 | AGFE G2F2 | [B8G8D8] 😐
%
[V:1] |: BABc (B2A2) | (A2G2)G4 | c2B2A2G2 | F8 | e^defe2f2 | g4e4 | f2e2d2^c2 | “^Da Capo”d8  😐
[V:2] |: GFGA (G2F2) | (F2E2)E4 | A2G2F2E2 | d8 | c2c2c2d2 | e4c4 | d2c2B2A2 | “^Da Capo”B8 😐

